Yaru++/actions/16/snap-nodes-intersection.svg

<svg viewBox="0 0 24 24" xmlns="http://www.w3.org/2000/svg"><path d="m4 4v1h1v-1zm15.292969 0-6 6h.707031v.707031l6-5.9999998zm-13.292969 2v1h1v-1zm2 2v1h1v-1zm2 5.292969-6 6 .7070312.707031 5.9999998-6h-.707031zm5 1.707031v1h1v-1zm2 2v1h1v-1zm2 2v1h1v-1z" fill="#808080"/><path d="m10 10v4h4v-4zm1 1h2v2h-2z" fill="#1d99f3"/></svg>

<svg xmlns="http://www.w3.org/2000/svg" viewBox="0 0 24 24">
 <defs>
  <style id="current-color-scheme" type="text/css">
   .ColorScheme-Text { color:#808080; } .ColorScheme-Highlight { color:#1d99f3; }
  </style>
 </defs>
 <path style="fill:currentColor" class="ColorScheme-Text" d="M 4 4 L 4 5 L 5 5 L 5 4 L 4 4 z M 19.292969 4 L 13.292969 10 L 14 10 L 14 10.707031 L 20 4.7070312 L 19.292969 4 z M 6 6 L 6 7 L 7 7 L 7 6 L 6 6 z M 8 8 L 8 9 L 9 9 L 9 8 L 8 8 z M 10 13.292969 L 4 19.292969 L 4.7070312 20 L 10.707031 14 L 10 14 L 10 13.292969 z M 15 15 L 15 16 L 16 16 L 16 15 L 15 15 z M 17 17 L 17 18 L 18 18 L 18 17 L 17 17 z M 19 19 L 19 20 L 20 20 L 20 19 L 19 19 z"/>
 <path style="fill:currentColor" class="ColorScheme-Highlight" d="M 10 10 L 10 14 L 14 14 L 14 10 L 10 10 z M 11 11 L 13 11 L 13 13 L 11 13 L 11 11 z"/>
</svg>
